X:1
T:Press Forward
T:Press Forward
T:Philip Paul Bliss 
T:Philip Paul Bliss, 1870
T:Public Domain Courtesy of the Cyber Hymnal™
C:Philip Paul Bliss
Z:Public Domain
Z:Courtesy of the Cyber Hymnal™
%%score 1 ( 2 3 )
L:1/8
Q:1/4=107
M:6/8
K:Bb
V:1 treble 
V:2 bass 
V:3 bass 
V:1
 [DF] | [DF]3 [B,D]2 [DB] | [DB]3 [DF]2 [Fd] | [Fd]2 [Ec] [DB]2 [EG] | [DF]3- [DF]2 [DF] | %5
w: 1.~Press|for- ward, press|for- ward, Press|for- ward to the|prize; * While|
w: 2.~Press|for- ward, press|for- ward, Press|for- ward to the|prize; * When|
w: 3.~Press|for- ward, press|for- ward, Press|for- ward to the|prize; * When|
w: 4.~Press|for- ward, press|for- ward, Press|for- ward to the|prize; * Though|
 [EG]2 [FA] [GB]2 [EG] | [EG]2 [DF] [B,D]2 [DF] | [EG]2 [FA] [GB]2 [EG] | [EG]2 [DF] [B,D]2 [DF] | %9
w: life’s bright morn, with|ro- sy hue, Be-|decks the flowers that|bathed with dew, Sa-|
w: in the noon of|life thy heart From|Heav’n’s high call- ing|would de- part, And|
w: morn and noon of|life are past, And|even- ing sha- dows|length- en fast, And|
w: sweet the songs we|sing be- low, A|rich- er prize will|Heav’n be- stow, And|
 [DB]2 [DB] [Fc]2 [Fc] | [Fd]3 [FB]3 | [Gc]2 [Gc] [FB]2 [FA] | [FB]3- [FB]2 z || %13
w: lute thy wak- ing|eyes, Press|for- ward to the|prize. *|
w: doubts and fears a-|rise, Press|for- ward to the|prize. *|
w: swift the day- light|flies, Press|for- ward to the|prize. *|
w: there our trea- sure|lies, Press|for- ward to the|prize. *|
"^Refrain" [EG]3 [Ge]3 | [Fd]3 [DB]2 [DB] | [Fc]2 [Fc] [FB]2 [Fc] | [Fd]3- [Fd]2 z | [EG]3 [Ge]3 | %18
w: |||||
w: |||||
w: |||||
w: |||||
 [Fd]3 [DB]2 [FB] | [Gc]2 [Gc] [FB]2 [EA] | [DB]3- [DB]2 z |] %21
w: |||
w: |||
w: |||
w: |||
V:2
 [B,,B,] | [B,,B,]3 [B,,F,]2 [B,,F,] | [B,,F,]3 [B,,B,]2 [B,,B,] | %3
w: ~|~ ~ ~|~ ~ ~|
 [B,,B,]2 [B,,B,] [B,,B,]2 [B,,B,] | [B,,B,]3- [B,,B,]2 [B,,B,] | [E,B,]2 [E,B,] [E,B,]2 [E,B,] | %6
w: ~ ~ ~ ~|~ * ~|~ ~ ~ ~|
 [B,,B,]2 [B,,B,] [B,,F,]2 [B,,B,] | [E,B,]2 [E,B,] [E,B,]2 [E,B,] | %8
w: ~ ~ ~ ~|~ ~ ~ ~|
 [B,,B,]2 [B,,B,] [B,,F,]2 [B,,B,] | [B,,B,]2 [B,,B,] [F,A,]2 [F,A,] | B,3 [B,,D]3 | %11
w: ~ ~ ~ ~|~ ~ ~ ~|~ ~|
 [E,E]2 [E,E] [F,D]2 [F,C] | [B,,D]3- [B,,D]2 z || [E,B,]3 [E,B,]3 | [B,,B,]3 [B,,F,]2 [B,,B,] | %15
w: ~ ~ ~ ~|~ *|For- ward,|for- ward, Press|
 [F,A,]2 [F,A,] [F,G,]2 [F,A,] | B,3- B,2 z | [E,B,]3 [E,B,]3 | [B,,B,]3 [B,,F,]2 [B,,D] | %19
w: for- ward to the|prize. *|For- ward,|for- ward, Press|
 [E,E]2 [E,E] [F,D]2 [F,C] | [B,,B,]3- [B,,B,]2 z |] %21
w: for- ward to the|prize. *|
V:3
 x | x6 | x6 | x6 | x6 | x6 | x6 | x6 | x6 | x6 | B,3 x3 | x6 | x6 || x6 | x6 | x6 | B,3- B,2 x | %17
 x6 | x6 | x6 | x6 |] %21

